X: 1
T: Mrs. Crowley's
M: 2/4
L: 1/8
R: polka
K: Gmaj
DG EG/E/ | DG EG/D/ | DG FG/A/ | BA A2 |
DG EG/E/ | DG EG/D/ | DG FG/A/ | BG G2 :|
dB gB | dB gB | dB gB | cA AB/c/ |
dB gB | dB gB | GB A>B | AG G2 :|
